X: 12739
T: Father Kelly's
R: reel
M: 4/4
K: Gmajor
|:dedB cBAB|G2 BG DGBG|AGAB cBAG|EAAG ABce|
dedB cBAB|G2 BG DGBG|AGAB cdef|gdcA BG G2:|
|:dggf gdBd|eaab ageg|fdad bdad|g3e dcBc|
dggf gdBd|eaab agef|g3e dcBc|dBcA BG G2:|

